!!!COM: Franz Joseph Haydn
!!!OTL: Quatuor pour deux violons, alto et violoncelle
!!!system-decoration: (s1,s2,s3,s4)
**kern	**kern	**kern	**kern	**kern	**kern	**kern	**kern	**kern	**kern	**kern	**kern	**kern	**kern	**kern	**kern
*part4	*part4	*part4	*part4	*part3	*part3	*part3	*part3	*part2	*part2	*part2	*part2	*part1	*part1	*part1	*part1
*staff16	*staff15	*staff14	*staff13	*staff12	*staff11	*staff10	*staff9	*staff8	*staff7	*staff6	*staff5	*staff4	*staff3	*staff2	*staff1
*I"Violone	*	*	*	*I"Viola	*	*	*	*I"Violino II	*	*	*	*I"Violino I	*	*	*
*clefF4	*clefC3	*clefG2	*clefG2
*k[b-e-]	*k[b-e-]	*k[b-e-]	*k[b-e-]
*M6/8	*M6/8	*M6/8	*M6/8
!	!	!	!LO:TX:a:i:t=Presto
8BB-y	8B-y	8B-y	8B-y
=1	=1	=1	=1
4BB-y	4B-y	4B-y	4B-y
8D	8d	8d	8d
4D	4d	4d	4d
8F	8f	8f	8f
=2	=2	=2	=2
4F	4f	4f	4f
8B-y	8b-y	8b-y	8b-y
4B-y	4b-y	4b-y	4b-y
8r	8r	8dd	8ff
=3	=3	=3	=3
4r	4r	4dd	(>8ffL
.	.	.	8bb-y)
8r	8r	8ee-y	8gg'>J
4r	4r	4dd	4ff
8F	8b-y	8dd	8r
=4	=4	=4	=4
8FL	(>8aL	(>8ccL	4r
8F	8b-y	8dd	.
8FJ	8ccJ)	8ee-yJ)	8r
4BB-y	4b-y	4dd	4r
8BB-y	8B-y	8B-y	8B-y
=5	=5	=5	=5
4BB-y	4B-y	4B-y	4B-y
8D	8d	8d	8d
4D	4d	4d	4d
8F	8f	8f	8f
!!LO:LB
=6	=6	=6	=6
!!Error: measure 6, staff 1 is underfilled: adding token 8ryy at end of measure to complete its duration.
4F	4f	4f	4f
8B-y	8b-y	8b-y	8b-y
4B-y	4b-y	4b-y	4b-y
8r	8r	8b-y	8ryy
=7	=7	=7	=7
4r	4r	4a	(>8ccL
.	.	.	8ff)
8r	8r	8b-y	8dd'>J
4r	4r	4a	4cc
8F	8a	8cc	8r
=8	=8	=8	=8
8FL	(>8aL	(>8ccL	4r
8F	8b-y	8dd	.
8FJ	8ccJ)	8ee-yJ)	8r
4BB-y	4b-y	4dd	4r
8r	8r	8r	8dd
=9	=9	=9	=9
8r	4r	8ddL	(>8bb-yL
8r	.	8b-y	8gg)
8c'>	8b-y'>	8g'<J	8een'>J
(>8AL	(>8aL	(<8fL	(>8ffL
8FJ)	8fJ)	8aJ)	8cc)
8r	8r	8r	8cc'>J
=10	=10	=10	=10
8r	4r	(<8b-yL	(>8ggL
8r	.	8g)	8een)
8C'<	8g'>	8en'<J	8b-y'>J
(>8FL	(>8fL	4f	(>8aL
8AJ)	8aJ)	.	8cc)
8r	8r	8r	8cc'>J
=11	=11	=11	=11
4.B-y	4.b-y	(<8dL	(>8ddL
.	.	8g)	8b-y)
.	.	8b-y'<J	8g'>J
4.A	4.a	(<8B-yL	(<8ccL
.	.	8en)	8a)
.	.	8e'<J	8f'<J
!!LO:LB
=12	=12	=12	=12
4G	4g	4f	(<8enL
.	.	.	8b-y)
8C	8c	8r	8b-y'<J
4F	4f	4r	(>8b-yL
.	.	.	8a)
8r	8r	8r	8cc'>J
=13	=13	=13	=13
8CL	4.g	4r	(>8bb-yL
8c	.	.	8gg)
8B-yJ	.	8r	8een'>J
8AL	8aL	(<8cL	(>8ffL
8G	8g	8en)	8cc)
8FJ	8fJ	8f'<J	8cc'>J
=14	=14	=14	=14
8EnL	8enL	(<8cL	(>8ggL
8C	8c	8g)	8een)
8EJ	8eJ	8g'<J	8b-y'>J
4F	4f	(<8fL	(>8aL
.	.	8a)	8cc)
8r	8r	8a'<J	8cc'>J
=15	=15	=15	=15
2.r	2.r	8b-y'>L	8dd'>L
.	.	(>8b-y	(>8dd
.	.	8ccJ)	8eenJ)
.	.	8dd'>L	8ff'>L
.	.	(>8dd	(>8ff
.	.	8eenJ)	8ggJ)
=16	=16	=16	=16
2.r	2.r	8ff'>L	8aa'>L
.	.	(>8ff	(>8aa
.	.	8ggJ)	8bb-yJ)
.	.	4aa	4ccc
.	.	8r	8r
=17	=17	=17	=17
!!Error: measure 17, staff 3 is underfilled: adding token 8ryy at end of measure to complete its duration.
8CL	8gL	8en'<L	(>16bb-yL
.	.	.	16gg
8C	8g	8e'<	16een)
.	.	.	16cc'>
8CJ	8gJ	8e'<J	16b-y'>
.	.	.	16g'>J
4.C	8aL	8f'<L	4f
.	8b-yJ	(<16cc	.
.	.	16a)	.
.	8ryy	(<16g	8r
.	.	16fJ)	.
!!LO:LB
=18	=18	=18	=18
4.C	8gL	8en'<L	(>16bb-yL
.	.	.	16gg
.	8g	8e'<	16een)
.	.	.	16cc'>
.	8gJ	8e'<J	16b-y'>
.	.	.	16g'>J
4.C	8aL	8f'<L	4f
.	8a	(<16cc	.
.	.	16a)	.
.	8aJ	(<16g	8r
.	.	16fJ)	.
=19	=19	=19	=19
4.C	8gL	8enL	(>16bb-yL
.	.	.	16gg
.	8g	8e	16een)
.	.	.	16cc'>
.	8gJ	8eJ	16b-y'>
.	.	.	16g'>J
4.C	8aL	8fL	16fL
.	.	.	16a
.	8a	8f	16cc
.	.	.	16ee-
.	8aJ	8fJ	16ff
.	.	.	16aaJ
=20	=20	=20	=20
8CL	8gL	8enL	(>16bb-yL
.	.	.	16gg
8C	8g	8e	16een)
.	.	.	16cc'>
8CJ	8cJ	8eJ	16b-y'>
.	.	.	16g'>J
4F	8f	4f	4f
.	8r	.	.
8AA	8A	8A	8A
=21	=21	=21	=21
!!Error: measure 21, staff 3 is underfilled: adding token 4.ryy at end of measure to complete its duration.
8BB-y'<L	8B-y'<L	8B-y'<L	8B-y'<L
(<8BB-y	(<8B-y	(<8B-y	(<8B-y
(<8CJ)	8cJ)	8cJ)	8cJ)
8DL	4.ryy	(<8dL	(<8dL
8F)	.	8f)	8f)
8AA'<J	.	8A'<J	8A'<J
=22	=22	=22	=22
4BB-y	4B-y	(<8B-yL	(<8B-yL
.	.	8g)	8g)
8C	8G	8en'<J	8en'<J
8F	8A	8f	8f
8r	8r	8r	8r
(<8C	(>8c	8e	8g
=23	=23	=23	=23
8F)	8f)	8f	8f
8r	8r	8r	8r
(>8C	8c	8en	8g
4F)	4f	8f'<L	8f'<L
.	.	8f'<	8f'<
(>8C	(>8c	8eJ	8gJ
!!LO:LB
=24	=24	=24	=24
4F)	4f)	4f	4f
4r	4r	4r	4r
8r	8r	8r	8r
=	=	=	=
8r	8r	8r	8ddd
=25	=25	=25	=25
4r	4r	4r	(>16dddL
.	.	.	16bbn
.	.	.	16gg)
.	.	.	16ff'>
8r	8r	8r	16dd'>
.	.	.	16bn'>J
4r	4r	4r	4g
8G	8Bn	8d	8r
=26	=26	=26	=26
8GL	(>8BnL	(<8dL	4r
8G	8c	8e-y	.
8GJ	8dJ)	8fJ)	8r
4C	4c	4e-y	4r
8r	8r	8r	8ccc
=27	=27	=27	=27
4r	4r	4r	(>16cccL
.	.	.	16aa
.	.	.	16ff)
.	.	.	16ee-y'>
8r	8r	8r	16cc'>
.	.	.	16a'>J
4r	4r	4r	4f
8F	8A	8c	8r
=28	=28	=28	=28
8FL	(<8AL	(<8cL	4r
8F	8B-y	8d	.
8FJ	8cJ)	8e-yJ)	8r
4BB-y	4B-y	4d	4r
8D	8B-y	8r	8b-y'>
!!LO:LB
=29	=29	=29	=29
4.E-y	(<8B-yL	4r	(<8gL
.	8c)	.	8e-yJ)
.	8c'<J	8cc'>	8r
4.F	(>8cL	8aL	4r
.	8d)	8fJ	.
.	8d'>J	8r	8dd'>
=30	=30	=30	=30
4.G	8dL	4r	(<8b-yL
.	8e-y	.	8gJ)
.	8e-y'>J	8ee-y'>	8r
4.A	(>8e-yL	(>8ccL	4r
.	8f)	8aJ)	.
.	8c'>J	8r	8ff
=31	=31	=31	=31
4B-y	4d	4.r	8ff'>L
.	.	.	8ff'>
8r	8r	.	8ff'>J
4r	4r	4r	(>8bb-yL
.	.	.	8ffJ)
8F	8b-y	8dd	8r
=32	=32	=32	=32
8FL	(>8aL	(>8ccL	4r
8F	8b-y	8dd	.
8FJ	8ccJ)	8ee-yJ)	8r
.	8qcc	.	.
.	.	8qee-y	.
4B-y	4b-y	4dd	4r
8r	8r	8r	8ff
=33	=33	=33	=33
4r	4r	8dd	8ffL
.	.	8r	(>16gg
.	.	.	16ff)
8r	8r	8r	(>16gg
.	.	.	16ffJ)
4r	4r	4r	(>8bb-yL
.	.	.	8ffJ)
8F	8dd	8ff	8r
=34	=34	=34	=34
8FL	(>8ddL	(>8ffL	4r
8F	8cc	8ee-y	.
8FJ	8b-yJ)	8ddJ)	8r
4F	4a	4cc	4r
8r	8r	8r	8ff'>
!!LO:LB
=35	=35	=35	=35
8r	4r	4r	(>8gg-L
8r	.	.	8ffJ)
8F'>	8a'>	8cc'>	8r
(>8EnL	(>8b-yL	(>8dd-L	4r
8FJ)	8aJ)	8ccJ)	.
8r	8r	8r	8ff'>
=36	=36	=36	=36
8r	4r	4r	(>8gg-L
8r	.	.	8ffJ)
8F'>	8a'>	8cc'>	8r
(>8EnL	(>8b-yL	(<8dd-L	4r
8F)	8a)	8cc)	.
8F'>J	8fJ	8f'<J	8f
=37	=37	=37	=37
4B-y	4b-y	4b-y	4b-y
8F	8f	8f	8f
4D-	4d-	4d	4d-
8BB-y	8B-y	8B-y	8B-y
=38	=38	=38	=38
(>8G-L	(>8g-L	(<8g-L	(<8g-L
8F)	8f)	8f)	8f)
8En'>J	8en'>J	8en'<J	8en'<J
4F	4f	4f	4f
8r	8d-	8e	8b-y
=39	=39	=39	=39
4FF	4c	4f	(>8aL
.	.	.	8ff)
8r	8d-	8en	8b-y'>J
4FF	4c	4f	(>8aL
.	.	.	8ff)
8r	8d-y	8e	8b-y'>J
=40	=40	=40	=40
4FF	4c	4f	4a
8r	8r	8r	8r
8r	4r	4r	4r
8r	.	.	.
8BB-y	8B-y	8B-y	8B-y
!!LO:LB
=41	=41	=41	=41
4BB-y	4B-y	4B-y	4B-y
8D	8d	8d	8dn
4D	4d	4d	4d
8F	8f	8f	8f
=42	=42	=42	=42
4F	4f	4f	4f
8B-y	8b-y	8b-y	8b-y
4B-y	4b-y	4b-y	4b-y
8r	8r	8dd	8ff
=43	=43	=43	=43
!!Error: measure 44, staff 1 is underfilled: adding token 8ryy at end of measure to complete its duration.
4r	4r	4dd	(>8ffL
.	.	.	8bb-y)
8r	8r	8ee-y	8gg'>J
4r	4r	4dd	4ff
8F	8b-y	8dd	8ryy
=44	=44	=44	=44
8FL	(>8aL	8ccL	4r
8F	8b-y	8dd	.
8FJ	8ccJ)	8ee-yJ	8r
4BB-y	4b-y	4dd	4r
8BB-y	8B-y	8B-y	8A
=45	=45	=45	=45
4BB-y	4B-y	4B-y	4B-y
8E-y	8e-y	8e-y	8e-y
4E-y	4e-y	4e-y	4e-y
8G	8g	8g	8g
=46	=46	=46	=46
!!Error: measure 47, staff 1 is underfilled: adding token 8ryy at end of measure to complete its duration.
4G	4g	4g	4g
8B-y	8b-y	8b-y	8b-y
4B-y	4b-y	4b-y	4b-y
8r	8r	8ee-y	8ryy
!!LO:LB
=47	=47	=47	=47
2.r	4r	(>8ee-yL	(>8ggL
.	.	8gg)	8bb-y)
.	8r	8ee-y'>J	8gg'>J
.	4r	4dd	4ff
.	8b-y	8dd	8r
=48	=48	=48	=48
8FL	(>8aL	(>8ccL	4r
8F	8b-y	8dd	.
8FJ	8ccJ)	8ee-yJ)	8r
4B-y	4b-y	4dd	4r
8r	8r	8r	8dd
=49	=49	=49	=49
4.c	4.g	4.b-y	(>8bb-yL
.	.	.	8gg)
.	.	.	8een'>J
4.F	4.f	4.a	(>8ffL
.	.	.	8cc)
.	.	.	8cc'>J
=50	=50	=50	=50
4.B-y	4.f	4.a-	(>8aa-L
.	.	.	8ff)
.	.	.	8dd'>J
4.E-y	4.e-y	4.g	(>8ee-yL
.	.	.	8b-y)
.	.	.	8b-y'>J
=51	=51	=51	=51
4.e-y	4.ee-y	8gL	(>8ggL
.	.	8cc	8ee-y)
.	.	8ee-y'>J	8cc'>J
4.d	4.dd	(<8fL	(>8ffL
.	.	8b-y)	8dd)
.	.	8dd'<J	8b-y'>J
=52	=52	=52	=52
4c	4cc	8e-yL	(>8aL
.	.	8a	8ee-y)
8F	8cc	8aJ	8ee-yJ
4B-y	4b-y	4b-y	(<8ddL
.	.	.	8b-y)
8r	8r	8d	8f'<J
!!LO:LB
=53	=53	=53	=53
2.r	2.r	8e-y'<L	8g'<L
.	.	(<8e-y	(<8g
.	.	8fJ)	8aJ)
.	.	8g'<L	8b-y'>L
.	.	(<8g	(>8b-y
.	.	8aJ)	8ccJ)
=54	=54	=54	=54
2.r	2.r	8b-y'>L	8dd'>L
.	.	(>8b-y	(>8dd
.	.	8ccJ)	8ee-yJ)
.	.	4dd	4ff
.	.	8r	8r
=55	=55	=55	=55
!!Error: measure 56, staff 1 is underfilled: adding token 4ryy at end of measure to complete its duration.
8FL	8cL	8A'<L	(<16ee-yL
.	.	.	16cc
8F	8c	8A'<	16a)
.	.	.	16f'<
8FJ	8cJ	8A'<J	16e-y'<
.	.	.	16c'<J
4.F	8dL	8B-yL	8r
.	8d	(<16f	4ryy
.	.	16d)	.
.	8dJ	(<16c	.
.	.	16B-yJ)	.
=56	=56	=56	=56
8FL	8cL	4.A	(<16ee-yL
.	.	.	16cc
8F	8c	.	16a)
.	.	.	16f'<
8FJ	8cJ	.	16e-y'<
.	.	.	16c'<J
8FL	8dL	8B-yL	4B-y
8F	8d	(<16f	.
.	.	16d)	.
8FJ	8dJ	(<16c	8r
.	.	16B-yJ)	.
=57	=57	=57	=57
8FL	8cL	4.A	(<16ee-yL
.	.	.	16cc
8F	8c	.	16a)
.	.	.	16f'<
8FJ	8cJ	.	16e-y'<
.	.	.	16c'<J
4.F	8dL	4.B-y	(<16B-yL
.	.	.	16d
.	8d	.	16f)
.	.	.	16a'<
.	8dJ	.	16b-y'<
.	.	.	16dd'<J
=58	=58	=58	=58
8FL	8cL	4.A	(<16ee-yL
.	.	.	16cc
8F	8c	.	16a)
.	.	.	16f'<
8FJ	8FJ	.	16e-y'<
.	.	.	16c'<J
4B-y	4B-y	4B-y	4B-y
8F	8f	8f	8f
!!LO:LB
=59	=59	=59	=59
8G'>L	8g'>L	8g'<L	8g'<L
(>8G	(>8g	(<8g	(<8g
8AJ)	8aJ)	8aJ)	8aJ)
(>8B-yL	(>8b-yL	(<8b-yL	(<8b-yL
8d)	8dd)	8dd)	8dd)
8D'>J	8d'>J	8f'<J	8f'<J
=60	=60	=60	=60
4E-y	4e-y	(<8gL	8gL
.	.	8cc)	8cc
8F	8c	8a'<J	8a'<J
8BB-yL	8d	8b-y	8b-y
8r	8r	8r	8r
(<8FFJ	(<8F	8A	8cc
=61	=61	=61	=61
8BB-yL)	8B-y)	8B-y	8b-y
8r	8r	8r	8r
(<8FFJ	(<8F	8A	8cc
4BB-y)	4B-y)	8B-y'<L	8b-y'>L
.	.	8B-y'<	8b-y'>
(<8FF	(<8F	8AJ	8ccJ
=62	=62	=62	=62
4BB-y)	4B-y)	4B-y	4b-y
8r	8r	8r	8r
4r	4r	4r	4r
!!LO:LB
=63:|!	=63:|!	=63:|!	=63:|!
1%0r	1%0r	1%0r	1%0r
1%0r	1%0r	1%0r	1%0r
==	==	==	==
*-	*-	*-	*-
!!!RDF**kern: > = above
!!!RDF**kern: < = below
